X:218
T: WIR WAREN UNSER EINS, WIR WAREN UNSER ZWEI
N: Z0217
O: Europa, Mitteleuropa, Deutschland, Halle
R: Romanze, Handwerks - Burschen - Lied
M: 2/4
L: 1/8
K: F
C | FFFF | F2z
G | AAAA | A2z2
c2c2 | dcBA | G2G2 | G4
c2fc | cBBB | AFcA | G4
c2fc | cBBB | AFcA | G3
C | F3G | A2B2 | G4
B4 | BAGF | c2c2 | F2z

